public/img/removal/remove-filter-key-completed-icon.svg

<svg fill="none" height="18" viewBox="0 0 18 18" width="18" xmlns="http://www.w3.org/2000/svg"><path d="m9 0c-4.968 0-9 4.032-9 9s4.032 9 9 9 9-4.032 9-9-4.032-9-9-9zm-1.8 13.5-4.5-4.5 1.269-1.269 3.231 3.222 6.831-6.831 1.269 1.278z" fill="#0ae020"/></svg>

<svg width="18" height="18" viewBox="0 0 18 18" fill="none" xmlns="http://www.w3.org/2000/svg">
<title>Green check mark</title>
<path d="M9 0C4.032 0 0 4.032 0 9C0 13.968 4.032 18 9 18C13.968 18 18 13.968 18 9C18 4.032 13.968 0 9 0ZM7.2 13.5L2.7 9L3.969 7.731L7.2 10.953L14.031 4.122L15.3 5.4L7.2 13.5Z" fill="#0AE020"/>
</svg>
